X: 34098
T: Reel Des Habitants
R: reel
M: 4/4
K: Adorian
|:EAAB AGAB|cded cBc2|EFGA GFGA|BcdB cBAG|
AAA2 EAAB|AGAB cdef|gage dBGB|cBAG AAA2:|
|:ea2b agef|gfga ge/e/e2|ea2b agef|gedB cA/A/A2|
ea2b agef|gfga gedB|gfge dBGB|cBAG AAA2:|

